workspaces/osm/styles/symbols/shop/perfumery.svg

<?xml version="1.0" encoding="UTF-8" standalone="no"?>
<svg
   xmlns:dc="http://purl.org/dc/elements/1.1/"
   xmlns:cc="http://creativecommons.org/ns#"
   xmlns:rdf="http://www.w3.org/1999/02/22-rdf-syntax-ns#"
   xmlns:svg="http://www.w3.org/2000/svg"
   xmlns="http://www.w3.org/2000/svg"
   id="svg2"
   viewBox="0 0 14 14"
   height="14"
   width="14"
   version="1.1">
  <defs
     id="defs3053" />
  <metadata
     id="metadata8">
    <rdf:RDF>
      <cc:Work
         rdf:about="">
        <dc:format>image/svg+xml</dc:format>
        <dc:type
           rdf:resource="http://purl.org/dc/dcmitype/StillImage" />
        <dc:title></dc:title>
      </cc:Work>
    </rdf:RDF>
  </metadata>
  <rect
     width="14"
     height="14"
     x="0"
     y="0"
     id="canvas"
     style="fill:none;stroke:none;visibility:hidden" />
  <path
     id="perfumery"
     style="fill:#000000;fill-opacity:1;stroke:none"
     d="M 14,2.5 C 14,3.6605381 12.880712,4.6013401 11.5,4.6013401 10.119288,4.6013401 9,3.6605381 9,2.5 9,1.3394619 10.119288,0.39865994 11.5,0.39865994 12.880712,0.39865994 14,1.3394619 14,2.5 Z M 8,2 10,2 10,3 8,3 Z M 3,-5.0000001e-8 l 1,0 L 4,1 3,1 Z M 1,0 2,0 2,1 1,1 Z M 1,4 2,4 2,5 1,5 Z M 3,4 4,4 4,5 3,5 Z M 4,2 5,2 5,3 4,3 Z M 2,2 3,2 3,3 2,3 Z M 0,2 1,2 1,3 0,3 Z M 6,5.4221106 8,5.39866 8,2 C 8,1 8,1 7,1 6.0336003,1.0168001 6,1 6,2 Z M 5,6 C 3,6 1.46875,9 1.46875,11 1.46875,12 4,14 5,14 l 4,0 c 1,0 3.414063,-2 3.414062,-3 C 12.414062,9 11,6 9,6 Z" />
</svg>

<svg width="14" height="14" version="1.1" viewBox="0 0 14 14" xmlns="http://www.w3.org/2000/svg"><rect id="a" width="14" height="14" fill="none" visibility="hidden"/><path id="b" d="m14 2.5c0.0083 0.94516-0.77079 1.725-1.6404 1.9738-1.1134 0.35129-2.5033-0.02066-3.1131-1.0628-0.4217-0.69312-0.27978-1.6385 0.28669-2.2084 1.0815-1.1544 3.2187-1.0612 4.1356 0.25138 0.21072 0.30563 0.33268 0.6737 0.33122 1.046zm-6-0.5h2v1h-2v-1zm-5-2h1v1h-1v-1zm-2 5e-8h1v1h-1v-1zm0 4h1v1h-1v-1zm2 0h1v1h-1v-1zm1-2h1v1h-1v-1zm-2 0h1v1h-1v-1zm-2 0h1v1h-1v-1zm6 3.4221c0.66667-0.0078169 1.3333-0.015634 2-0.023451-0.0036167-1.2874 0.0077053-2.575-0.0065918-3.8623 0.065907-0.43515-0.38088-0.59288-0.7377-0.53555-0.35343 0.015575-0.72882-0.044573-1.0638 0.089893-0.268 0.223-0.16631 0.61975-0.19193 0.92908v3.4023zm-1 0.57789c-0.96364 0.0031739-1.7616 0.68996-2.2992 1.4315-0.73481 1.0379-1.2056 2.2904-1.2321 3.5685 0.051392 0.54882 0.46449 0.97162 0.82272 1.3575 0.67217 0.65635 1.4394 1.2528 2.3308 1.5746 0.39212 0.11717 0.80609 0.05006 1.2093 0.06785 1.0887-0.0038 2.1779 0.0076 3.2662-0.0058 0.70225-0.12962 1.2953-0.57318 1.8463-1.0036 0.55773-0.47438 1.1199-0.99857 1.4095-1.6855 0.12896-0.40482 0.02356-0.83887-0.03026-1.2488-0.24408-1.2474-0.78084-2.4857-1.7186-3.3678-0.48128-0.45376-1.1347-0.73782-1.8026-0.68855h-3.802z"/></svg>
